X:264
T:Dark Girl Dressed in Blue
R:polka
S:English
L:1/8
M:2/4
K:D
|A3 G|F2G2|AB =cB|A2G2|A3 G|F2G2|A2d2|c2d2
|A3G|F2G2|AB =cB|A2G2|A2d2|cde2|d4|1 d4:|2 d2e2|
|:f2f2|g2f2|ed cB|A2e2|f2f2|g2f2|e2c2|A2e2|
|f2f2|g2f2|ed cB |A2B2|=c2B2|A2G2|AB =cB|1 A2e2:|2 A2G2|
